images/basic-sector-implied/basic-sector-implied-exit-6-1-1-1.svg

<svg xmlns="http://www.w3.org/2000/svg" focusable="false" aria-hidden="true" width="202" height="93" style="pointer-events: none; position: absolute; left: 0px; top: 0px; transform-origin: left top; z-index: 20;"><defs/><g><g><g><g><rect x="0" y="0" width="192" height="83" rx="0" ry="0" style="fill: #333; stroke: none;stroke-miterlimit: 10;"/></g><g transform="translate(10.00000000000000000000,10.00000000000000000000)"><g transform="translate(5.00000000000000000000,5.00000000000000000000)"><g><g transform="translate(0.00000000000000000000,26.05576211353315585484)"><g><g transform="translate(30.00000000000000000000,0.00000000000000000000)"><g transform="scale(30.00000000000000000000)"><g><path d="M 0.50000000000000011102 0.86602540378443859659 L 0.00000000000000000000 0.00000000000000000000 L 1.00000000000000000000 0.00000000000000000000 L 0.50000000000000011102 0.86602540378443859659 Z " style="fill: #000; stroke: none;stroke-miterlimit: 10;"/></g><g><path d="M -1.00000000000000000000 0.00000000000000012246 L 0.00000000000000000000 0.00000000000000000000 L -0.49999999999999977796 0.86602540378443870761 L -1.00000000000000000000 0.00000000000000012246 Z " style="fill: #000; stroke: none;stroke-miterlimit: 10;"/></g><g><path d="M 0.50000000000000011102 -0.86602540378443859659 L 0.00000000000000000000 0.00000000000000000000 L -0.50000000000000044409 -0.86602540378443848557 L 0.50000000000000011102 -0.86602540378443859659 Z " style="fill: #000; stroke: none;stroke-miterlimit: 10;"/></g><g><path d="M 0.11000000000000002831 0.19052558883257650346 A 0.22000000000000000111 0.22000000000000000111 0 0 0 0.22000000000000000111 -0.00000000000000005388 M 0.14000000000000004108 0.24248711305964282259 A 0.28000000000000002665 0.28000000000000002665 0 0 0 0.28000000000000002665 -0.00000000000000006858 " style="fill: none; stroke: rgb(8,164,217);stroke-width: 0.02;stroke-miterlimit: 10;"/></g><g><path d="M -0.22000000000000000111 0.00000000000000002694 A 0.22000000000000000111 0.22000000000000000111 0 0 0 -0.11000000000000016709 0.19052558883257642020 M -0.28000000000000002665 0.00000000000000003429 A 0.28000000000000002665 0.28000000000000002665 0 0 0 -0.14000000000000023537 0.24248711305964273932 " style="fill: none; stroke: rgb(8,164,217);stroke-width: 0.02;stroke-miterlimit: 10;"/></g><g><line x1="0" y1="0" x2="1" y2="0" style="fill: none; stroke: rgba(255,255,255,0.2);stroke-width: 0.01;stroke-miterlimit: 10;"/></g><g><line x1="0" y1="0" x2="0.5000000000000001" y2="0.8660254037844386" style="fill: none; stroke: rgba(255,255,255,0.2);stroke-width: 0.01;stroke-miterlimit: 10;"/></g><g><line x1="0" y1="0" x2="-0.4999999999999998" y2="0.8660254037844387" style="fill: none; stroke: rgba(255,255,255,0.2);stroke-width: 0.01;stroke-miterlimit: 10;"/></g><g><line x1="0" y1="0" x2="-1" y2="1.2246467991473532e-16" style="fill: none; stroke: rgba(255,255,255,0.2);stroke-width: 0.01;stroke-miterlimit: 10;"/></g><g><line x1="0" y1="0" x2="-0.5000000000000004" y2="-0.8660254037844385" style="fill: none; stroke: rgba(255,255,255,0.2);stroke-width: 0.01;stroke-miterlimit: 10;"/></g><g><line x1="0" y1="0" x2="0.5000000000000001" y2="-0.8660254037844386" style="fill: none; stroke: rgba(255,255,255,0.2);stroke-width: 0.01;stroke-miterlimit: 10;"/></g><g><circle r="0.06" style="fill: #222; stroke: rgba(255,255,255,0.2);stroke-width: 0.02;stroke-miterlimit: 10;"/></g><g><circle r="0.12" style="fill: none; stroke: #f00;stroke-width: 0.03;stroke-miterlimit: 10;"/></g></g></g><g transform="translate(70.50000000000000000000,0.00000000000000000000)"><path d="M 0.00000000000000003062 0.50000000000000000000 L 13.00000000000000000000 0.50000000000000000000 L 13.00000000000000000000 3.50000000000000000000 L 20.00000000000000000000 0.00000000000000000000 L 13.00000000000000000000 -3.50000000000000000000 L 13.00000000000000000000 -0.50000000000000000000 L -0.00000000000000003062 -0.50000000000000000000 L 0.00000000000000003062 0.50000000000000000000 Z " style="fill: #ccc; stroke: #ccc;stroke-miterlimit: 10;"/></g><g transform="translate(131.61803398874991444245,0.00000000000000000000)"><g transform="scale(30.00000000000000000000)"><g><path d="M 0.50000000000000011102 0.86602540378443859659 L 0.00000000000000000000 0.00000000000000000000 L 1.00000000000000000000 0.00000000000000000000 L 0.50000000000000011102 0.86602540378443859659 Z " style="fill: #000; stroke: none;stroke-miterlimit: 10;"/></g><g><path d="M -1.00000000000000000000 0.00000000000000012246 L 0.00000000000000000000 0.00000000000000000000 L -0.49999999999999977796 0.86602540378443870761 L -1.00000000000000000000 0.00000000000000012246 Z " style="fill: #000; stroke: none;stroke-miterlimit: 10;"/></g><g><path d="M 0.50000000000000011102 -0.86602540378443859659 L 0.00000000000000000000 0.00000000000000000000 L -0.50000000000000044409 -0.86602540378443848557 L 0.50000000000000011102 -0.86602540378443859659 Z " style="fill: #000; stroke: none;stroke-miterlimit: 10;"/></g><g><path d="M 0.11000000000000002831 0.19052558883257650346 A 0.22000000000000000111 0.22000000000000000111 0 0 0 0.22000000000000000111 -0.00000000000000005388 M 0.14000000000000004108 0.24248711305964282259 A 0.28000000000000002665 0.28000000000000002665 0 0 0 0.28000000000000002665 -0.00000000000000006858 " style="fill: none; stroke: rgb(8,164,217);stroke-width: 0.02;stroke-miterlimit: 10;"/></g><g><path d="M -0.22000000000000000111 0.00000000000000002694 A 0.22000000000000000111 0.22000000000000000111 0 0 0 -0.11000000000000016709 0.19052558883257642020 M -0.28000000000000002665 0.00000000000000003429 A 0.28000000000000002665 0.28000000000000002665 0 0 0 -0.14000000000000023537 0.24248711305964273932 " style="fill: none; stroke: rgb(8,164,217);stroke-width: 0.02;stroke-miterlimit: 10;"/></g><g><path d="M 0.11000000000000002831 -0.19052558883257650346 A 0.22000000000000000111 0.22000000000000000111 0 0 0 -0.11000000000000026423 -0.19052558883257633693 M 0.14000000000000004108 -0.24248711305964282259 A 0.28000000000000002665 0.28000000000000002665 0 0 0 -0.14000000000000034639 -0.24248711305964265605 " style="fill: none; stroke: rgb(8,164,217);stroke-width: 0.02;stroke-miterlimit: 10;"/></g><g><line x1="0" y1="0" x2="1" y2="0" style="fill: none; stroke: rgba(255,255,255,0.2);stroke-width: 0.01;stroke-miterlimit: 10;"/></g><g><line x1="0" y1="0" x2="0.5000000000000001" y2="0.8660254037844386" style="fill: none; stroke: rgba(255,255,255,0.2);stroke-width: 0.01;stroke-miterlimit: 10;"/></g><g><line x1="0" y1="0" x2="-0.4999999999999998" y2="0.8660254037844387" style="fill: none; stroke: rgba(255,255,255,0.2);stroke-width: 0.01;stroke-miterlimit: 10;"/></g><g><line x1="0" y1="0" x2="-1" y2="1.2246467991473532e-16" style="fill: none; stroke: rgba(255,255,255,0.2);stroke-width: 0.01;stroke-miterlimit: 10;"/></g><g><line x1="0" y1="0" x2="-0.5000000000000004" y2="-0.8660254037844385" style="fill: none; stroke: rgba(255,255,255,0.2);stroke-width: 0.01;stroke-miterlimit: 10;"/></g><g><line x1="0" y1="0" x2="0.5000000000000001" y2="-0.8660254037844386" style="fill: none; stroke: rgba(255,255,255,0.2);stroke-width: 0.01;stroke-miterlimit: 10;"/></g><g><circle r="0.06" style="fill: #222; stroke: rgba(255,255,255,0.2);stroke-width: 0.02;stroke-miterlimit: 10;"/></g><g><circle r="0.12" style="fill: none; stroke: #f00;stroke-width: 0.03;stroke-miterlimit: 10;"/></g></g></g></g></g></g></g></g></g></g></g></svg>

<svg xmlns="http://www.w3.org/2000/svg" width="202" height="93" aria-hidden="true" style="pointer-events:none;position:absolute;left:0;top:0;transform-origin:left top;z-index:20"><rect width="192" height="83" rx="0" ry="0" style="fill:#333"/><path d="M.5.866 0 0h1zM-1 0h1l-.5.866zM.5-.866 0 0l-.5-.866z" style="fill:#000" transform="matrix(30 0 0 30 45 41.056)"/><path d="M.11.19A.22.22 0 0 0 .22 0M.14.242A.28.28 0 0 0 .28 0m-.5 0a.22.22 0 0 0 .11.19M-.28 0a.28.28 0 0 0 .14.242" style="fill:none;stroke:#08a4d9;stroke-width:.02" transform="matrix(30 0 0 30 45 41.056)"/><path d="M0 0h1M0 0l.5.866M0 0l-.5.866M0 0h-1m1 0-.5-.866M0 0l.5-.866" style="fill:none;stroke:rgba(255,255,255,.2);stroke-width:.01" transform="matrix(30 0 0 30 45 41.056)"/><circle r=".06" style="fill:#222;stroke:rgba(255,255,255,.2);stroke-width:.02" transform="matrix(30 0 0 30 45 41.056)"/><circle r=".12" style="fill:none;stroke:red;stroke-width:.03" transform="matrix(30 0 0 30 45 41.056)"/><path d="M0 .5h13v3L20 0l-7-3.5v3H0z" style="fill:#ccc;stroke:#ccc" transform="translate(85.5 41.056)"/><path d="M.5.866 0 0h1zM-1 0h1l-.5.866zM.5-.866 0 0l-.5-.866z" style="fill:#000" transform="matrix(30 0 0 30 146.618 41.056)"/><path d="M.11.19A.22.22 0 0 0 .22 0M.14.242A.28.28 0 0 0 .28 0m-.5 0a.22.22 0 0 0 .11.19M-.28 0a.28.28 0 0 0 .14.242M.11-.19a.22.22 0 0 0-.22 0m.25-.052a.28.28 0 0 0-.28 0" style="fill:none;stroke:#08a4d9;stroke-width:.02" transform="matrix(30 0 0 30 146.618 41.056)"/><path d="M0 0h1M0 0l.5.866M0 0l-.5.866M0 0h-1m1 0-.5-.866M0 0l.5-.866" style="fill:none;stroke:rgba(255,255,255,.2);stroke-width:.01" transform="matrix(30 0 0 30 146.618 41.056)"/><circle r=".06" style="fill:#222;stroke:rgba(255,255,255,.2);stroke-width:.02" transform="matrix(30 0 0 30 146.618 41.056)"/><circle r=".12" style="fill:none;stroke:red;stroke-width:.03" transform="matrix(30 0 0 30 146.618 41.056)"/></svg>
